recalbox-backport/tic80/data/console.svg

<svg xmlns="http://www.w3.org/2000/svg" viewBox="0 0 179 179"><g fill="#d7e6d0"><path d="M0 22.375h11.187v145.438H0zM11.187 156.625h55.937V179H11.187zM67.125 156.625h11.188v11.188H67.125zM78.313 156.625h55.937V179H78.313zM134.25 156.625h11.187v11.188H134.25z"/><path d="M134.25 145.438h22.375v11.188H134.25zM145.438 100.688h11.187v44.75h-11.187zM156.625 100.688h11.188v11.188h-11.188zM145.438 44.75h33.563v55.938h-33.563zM0 11.188h22.375v11.188H0zM145.438 22.375h11.187V44.75h-11.187z"/><path d="M134.25 11.188h22.375v11.188H134.25zM11.187 0h134.25v11.188H11.187z"/></g><path fill="#5472b0" d="M11.187 22.375h123.062v123.063H11.187z"/><path fill="#d7e6d0" d="M22.375 44.75h100.688v55.938H22.375z"/><g fill="#d7e6d0"><path d="M44.75 111.875h11.188v11.188H44.75zM89.5 111.875h11.188v11.188H89.5zM55.938 123.063H89.5v11.188H55.938z"/></g><g fill="#2e3369"><path d="M11.187 145.438h123.062v11.188H11.187zM22.375 33.563h100.688v11.188H22.375zM22.375 11.188H134.25v11.188H22.375z"/></g><g fill="#040006"><path d="M44.75 55.938h11.188v33.563H44.75zM89.5 55.938h11.188v33.563H89.5z"/></g><g fill="#150d1b"><path d="M156.625 55.938h11.188v33.563h-11.188zM145.438 89.5h11.187v11.188h-11.187zM134.25 22.375h11.188v123.063H134.25z"/></g><g><g fill="#130b1a"><path d="M22.375 156.625h33.563v11.188H22.375zM89.5 156.625h33.563v11.188H89.5z"/></g></g></svg>

<?xml version="1.0" encoding="UTF-8" standalone="no"?>
<svg
   xmlns:dc="http://purl.org/dc/elements/1.1/"
   xmlns:cc="http://creativecommons.org/ns#"
   xmlns:rdf="http://www.w3.org/1999/02/22-rdf-syntax-ns#"
   xmlns:svg="http://www.w3.org/2000/svg"
   xmlns="http://www.w3.org/2000/svg"
   xmlns:sodipodi="http://sodipodi.sourceforge.net/DTD/sodipodi-0.dtd"
   xmlns:inkscape="http://www.inkscape.org/namespaces/inkscape"
   viewBox="0 0 179.00101 179"
   version="1.1"
   id="svg36"
   sodipodi:docname="console.svg"
   width="179.00101"
   height="179"
   inkscape:version="0.92.4 5da689c313, 2019-01-14">
  <metadata
     id="metadata42">
    <rdf:RDF>
      <cc:Work
         rdf:about="">
        <dc:format>image/svg+xml</dc:format>
        <dc:type
           rdf:resource="http://purl.org/dc/dcmitype/StillImage" />
      </cc:Work>
    </rdf:RDF>
  </metadata>
  <defs
     id="defs40" />
  <sodipodi:namedview
     pagecolor="#ffffff"
     bordercolor="#666666"
     borderopacity="1"
     objecttolerance="10"
     gridtolerance="10"
     guidetolerance="10"
     inkscape:pageopacity="0"
     inkscape:pageshadow="2"
     inkscape:window-width="471"
     inkscape:window-height="442"
     id="namedview38"
     showgrid="false"
     inkscape:zoom="1.3184358"
     inkscape:cx="89.5"
     inkscape:cy="89.5"
     inkscape:window-x="0"
     inkscape:window-y="0"
     inkscape:window-maximized="0"
     inkscape:current-layer="svg36" />
  <g
     id="g8"
     style="fill:#f4f4f4">
    <path
       d="M 0,22.375 H 11.187 V 167.813 H 0 Z m 11.187,134.25 H 67.124 V 179 H 11.187 Z m 55.938,0 h 11.188 v 11.188 H 67.125 Z m 11.188,0 H 134.25 V 179 H 78.313 Z m 55.937,0 h 11.187 v 11.188 H 134.25 Z"
       id="path2"
       inkscape:connector-curvature="0" />
    <path
       d="m 134.25,145.438 h 22.375 v 11.188 H 134.25 Z m 11.188,-44.75 h 11.187 v 44.75 h -11.187 z m 11.187,0 h 11.188 v 11.188 H 156.625 Z M 145.438,44.75 h 33.563 v 55.938 H 145.438 Z M 0,11.188 H 22.375 V 22.376 H 0 Z m 145.438,11.187 h 11.187 V 44.75 h -11.187 z"
       id="path4"
       inkscape:connector-curvature="0" />
    <path
       d="m 134.25,11.188 h 22.375 V 22.376 H 134.25 Z M 11.187,0 h 134.25 V 11.188 H 11.187 Z"
       id="path6"
       inkscape:connector-curvature="0" />
  </g>
  <path
     d="M 11.187,22.375 H 134.249 V 145.438 H 11.187 Z"
     id="path10"
     inkscape:connector-curvature="0"
     style="fill:#4695d0" />
  <path
     d="m 22.375,44.75 h 100.688 v 55.938 H 22.375 Z"
     id="path12"
     inkscape:connector-curvature="0"
     style="fill:#f4f4f4" />
  <g
     id="g16"
     style="fill:#f4f4f4">
    <path
       d="m 44.75,111.875 h 11.188 v 11.188 H 44.75 Z m 44.75,0 h 11.188 v 11.188 H 89.5 Z M 55.938,123.063 H 89.5 v 11.188 H 55.938 Z"
       id="path14"
       inkscape:connector-curvature="0" />
  </g>
  <g
     id="g20"
     style="fill:#26356b">
    <path
       d="m 11.187,145.438 h 123.062 v 11.188 H 11.187 Z M 22.375,33.563 H 123.063 V 44.751 H 22.375 Z m 0,-22.375 H 134.25 V 22.376 H 22.375 Z"
       id="path18"
       inkscape:connector-curvature="0" />
  </g>
  <g
     id="g24"
     style="fill:#181a2b">
    <path
       d="M 44.75,55.938 H 55.938 V 89.501 H 44.75 Z m 44.75,0 h 11.188 V 89.501 H 89.5 Z"
       id="path22"
       inkscape:connector-curvature="0" />
  </g>
  <g
     id="g28"
     style="fill:#181a2b">
    <path
       d="m 156.625,55.938 h 11.188 V 89.501 H 156.625 Z M 145.438,89.5 h 11.187 v 11.188 H 145.438 Z M 134.25,22.375 h 11.188 V 145.438 H 134.25 Z"
       id="path26"
       inkscape:connector-curvature="0" />
  </g>
  <g
     id="g34">
    <g
       id="g32"
       style="fill:#181a2b">
      <path
         d="m 22.375,156.625 h 33.563 v 11.188 H 22.375 Z m 67.125,0 h 33.563 v 11.188 H 89.5 Z"
         id="path30"
         inkscape:connector-curvature="0" />
    </g>
  </g>
</svg>
